!!!COM:	Bach, Johann Sebastian
!!!CDT:	1685/02/21/-1750/07/28/
!!!OTL@@DE:	Werde munter, mein Gem&uuml;te
!!!SCT:	BWV 244/40
!!!PC#:	121
!!!AGN:	chorale
**kern	**kern	**kern	**kern
*ICvox	*ICvox	*ICvox	*ICvox
*Ibass	*Itenor	*Ialto	*Isoprn
*I"Bass	*I"Tenor	*I"Alto	*I"Soprano
*clefF4	*clefGv2	*clefG2	*clefG2
*k[f#c#g#]	*k[f#c#g#]	*k[f#c#g#]	*k[f#c#g#]
*A:	*A:	*A:	*A:
*M4/4	*M4/4	*M4/4	*M4/4
*met(c)	*met(c)	*met(c)	*met(c)
*MM100	*MM100	*MM100	*MM100
=1-	=1-	=1-	=1-
4F#	8f#L	8aL	4cc#
.	8eJ	8g#J	.
8BL	8dL	4f#	4dd
8AJ	8c#J	.	.
8G#L	4B	8bL	4ee
8F#J	.	8aJ	.
4E	8c#L	4g#	4ee
.	8BJ	.	.
=2	=2	=2	=2
8F#L	8AL	4f#	4dd
8G#J	8BJ	.	.
4A	8c#L	8eL	4cc#
.	8dJ	8f#J	.
4E	4e	4g#	4b
4E;	4e	4g#	4b;
=3	=3	=3	=3
4A	4e	8aL	4cc#
.	.	8g#J	.
4F#	8AL	4a	4dd
.	8BJ	.	.
4C#	8c#L	8aL	4ee
.	8dJ	8g#J	.
8BBL	4e	4a	8ddL
8AAJ	.	.	8cc#J
=4	=4	=4	=4
4D	4f#	8aL	[4b
.	.	8f#J	.
4E	8eL	4g#	8bL]
.	8dJ	.	8aJ
2AA;	2c#;	2e;	2a;
=5	=5	=5	=5
4A	4e	8aL	4cc#
.	.	8g#J	.
8BL	8dL	4f#	4dd
8AJ	8c#J	.	.
8G#L	4B	8bL	4ee
8F#J	.	8aJ	.
4E	8c#L	4g#	4ee
.	8BJ	.	.
=6	=6	=6	=6
8F#L	8AL	4f#	4dd
8G#J	8BJ	.	.
4A	8c#L	8eL	4cc#
.	8dJ	8f#J	.
4E	4e	4g#	4b
4E;	4e;	4g#;	4b;
=7	=7	=7	=7
4A	4e	8aL	4cc#
.	.	8g#J	.
4F#	8AL	4a	4dd
.	8BJ	.	.
4C#	8c#L	8aL	4ee
.	8dJ	8g#J	.
8BBL	4e	4a	8ddL
8AAJ	.	.	8cc#J
=8	=8	=8	=8
4D	4f#	8aL	[4b
.	.	8f#J	.
4E	8eL	4g#	8bL]
.	8dJ	.	8aJ
2AA;	2c#;	2e;	2a;
=9	=9	=9	=9
4E	4e	4g#	4b
8DL	4e	4a#	4cc#
8C#J	.	.	.
4BB	4f#	8bL	8ddL
.	.	8a#J	8cc#J
4Gn	8eL	4b	8ddL
.	8dJ	.	8eeJ
=10	=10	=10	=10
4E	4gn	4b	4cc#
4F#	8f#L	4a#	4cc#
.	8eJ	.	.
2BB;	2d;	2f#;	2b;
=11	=11	=11	=11
4BB	4f#	4b	4dd
4C#	4e	8bL	4ee
.	.	8anJ	.
4D	8dL	4a	4ff#
.	8c#J	.	.
4Gn	4d	4b	8eeL
.	.	.	16ff#L
.	.	.	16ggnJJ
=12	=12	=12	=12
4A	8dL	4a	4ff#
.	8BJ	.	.
4AA	4c#	8gnL	8eeL
.	.	8f#J	8ddJ
2D;	2A;	2f#;	2dd;
=13	=13	=13	=13
4A	4A	4e	4cc#
8G#XL	8BL	4a	4dd
8F#J	8c#J	.	.
4G#	4B	4g#X	4ee
4C#	4c#	8bL	4ee
.	.	8aJ	.
=14	=14	=14	=14
4F#	8dL	8aL	4dd
.	8eJ	8g#J	.
8EL	4f#	4a	4cc#
8D#J	.	.	.
4E	4g#	8eL	4b
.	.	8f#J	.
4EE;	4e;	4g#;	4b;
=15	=15	=15	=15
8AAL	4e	4a	4cc#
8GG#J	.	.	.
8AAL	4d	8g#L	4dd
8BBJ	.	8f#J	.
8C#L	8c#L	8eL	4ee
8BBJ	8dJ	8g#J	.
8C#L	8eL	4a	8aL
8DJ	8f#J	.	8bJ
=16	=16	=16	=16
4E	4e	4a	4cc#
4EE	8dL	4g#	8bL
.	8c#J	.	8aJ
4AA	4c#	4e	4a
4AA;	4c#;	4e;	4a;
==	==	==	==
*-	*-	*-	*-
!!!hum2abc: -Q ''
!!!title: @{PC#}. @{OTL@@DE}
!!!YOR1: 371 vierstimmige Choralges&auml;nge von Johann Sebastian Bach, 
!!!YOR2: 4th ed. by Alfred D&ouml;rffel (Leipzig: Breitkopf und H&auml;rtel, 
!!!YOR2: c.1875). 178 pp. Plate "V.A.10".  reprint: J.S. Bach, 371 Four-Part 
!!!YOR4: Chorales (New York: Associated Music Publishers, Inc., c.1940).
!!!SMS: B&H, 4th ed, Alfred D&ouml;rffel, c.1875, plate V.A.10
!!!EED:  Craig Stuart Sapp
!!!EEV:  2009/05/22
